X:648
T: HEUT HAB ICH DIE MACHT ALLHIER
N: E0597
O: Europa, Mitteleuropa, Deutschland, Schwaben; Brandenburg, Oranienburg
R: Liebes - Lied, Klage, Abschied
M: 2/4
L: 1/16
K: Eb
 | B4B3A | G3cB2
A2 | GB3F4 | E4z4 |
E3cc2c2 | c3BB2
G2 | A4G4 | F4z2
EF | G2G2B2G2 | F3GA2
A2 | G2G2B2G2 | F4z2
F2 | E3cc2c2 | B3eB2
A2 | GB3F4 | E4z4

@@@ Tune index: 4298
